vkBasalt/LUTs/nmh-color.cube
TITLE "No More Heroes Color Grade"
LUT_3D_SIZE 6
DOMAIN_MIN 0.0 0.0 0.0
DOMAIN_MAX 1.0 1.0 1.0
0.000000 0.000000 0.000000
0.201831 0.000000 0.000000
0.411530 0.000000 0.000000
0.616881 0.000000 0.000000
0.819459 0.000000 0.000000
1.000000 0.000000 0.000000
0.000000 0.201831 0.000000
0.201831 0.201831 0.000000
0.411530 0.201831 0.000000
0.616881 0.201831 0.000000
0.819459 0.201831 0.000000
1.000000 0.201831 0.000000
0.000000 0.411530 0.000000
0.201831 0.411530 0.000000
0.411530 0.411530 0.000000
0.616881 0.411530 0.000000
0.819459 0.411530 0.000000
1.000000 0.411530 0.000000
0.000000 0.616881 0.000000
0.201831 0.616881 0.000000
0.411530 0.616881 0.000000
0.616881 0.616881 0.000000
0.819459 0.616881 0.000000
1.000000 0.616881 0.000000
0.000000 0.819459 0.000000
0.201831 0.819459 0.000000
0.411530 0.819459 0.000000
0.616881 0.819459 0.000000
0.819459 0.819459 0.000000
1.000000 0.819459 0.000000
0.000000 1.000000 0.000000
0.201831 1.000000 0.000000
0.411530 1.000000 0.000000
0.616881 1.000000 0.000000
0.819459 1.000000 0.000000
1.000000 1.000000 0.000000
0.000000 0.000000 0.201831
0.201831 0.000000 0.201831
0.411530 0.000000 0.201831
0.616881 0.000000 0.201831
0.819459 0.000000 0.201831
1.000000 0.000000 0.201831
0.000000 0.201831 0.201831
0.201831 0.201831 0.201831
0.411530 0.185055 0.185055
0.616881 0.168627 0.168627
0.819459 0.152421 0.152421
1.000000 0.137977 0.137977
0.000000 0.411530 0.201831
0.185055 0.411530 0.185055
0.411530 0.411530 0.185055
0.616881 0.395102 0.168627
0.819459 0.378896 0.152421
1.000000 0.364452 0.137977
0.000000 0.616881 0.201831
0.168627 0.616881 0.168627
0.395102 0.616881 0.168627
0.616881 0.616881 0.168627
0.819459 0.600675 0.152421
1.000000 0.586232 0.137977
0.000000 0.819459 0.201831
0.152421 0.819459 0.152421
0.378896 0.819459 0.152421
0.600675 0.819459 0.152421
0.819459 0.819459 0.152421
1.000000 0.805016 0.137977
0.000000 1.000000 0.201831
0.137977 1.000000 0.137977
0.364452 1.000000 0.137977
0.586232 1.000000 0.137977
0.805016 1.000000 0.137977
1.000000 1.000000 0.137977
0.000000 0.000000 0.411530
0.201831 0.000000 0.411530
0.411530 0.000000 0.411530
0.616881 0.000000 0.411530
0.819459 0.000000 0.411530
1.000000 0.000000 0.411530
0.000000 0.201831 0.411530
0.185055 0.185055 0.411530
0.411530 0.185055 0.411530
0.616881 0.168627 0.395102
0.819459 0.152421 0.378896
1.000000 0.137977 0.364452
0.000000 0.411530 0.411530
0.185055 0.411530 0.411530
0.411530 0.411530 0.411530
0.616881 0.395102 0.395102
0.819459 0.378896 0.378896
1.000000 0.364452 0.364452
0.000000 0.616881 0.411530
0.168627 0.616881 0.395102
0.395102 0.616881 0.395102
0.616881 0.616881 0.395102
0.819459 0.600675 0.378896
1.000000 0.586232 0.364452
0.000000 0.819459 0.411530
0.152421 0.819459 0.378896
0.378896 0.819459 0.378896
0.600675 0.819459 0.378896
0.819459 0.819459 0.378896
1.000000 0.805016 0.364452
0.000000 1.000000 0.411530
0.137977 1.000000 0.364452
0.364452 1.000000 0.364452
0.586232 1.000000 0.364452
0.805016 1.000000 0.364452
1.000000 1.000000 0.364452
0.000000 0.000000 0.616881
0.201831 0.000000 0.616881
0.411530 0.000000 0.616881
0.616881 0.000000 0.616881
0.819459 0.000000 0.616881
1.000000 0.000000 0.616881
0.000000 0.201831 0.616881
0.168627 0.168627 0.616881
0.395102 0.168627 0.616881
0.616881 0.168627 0.616881
0.819459 0.152421 0.600675
1.000000 0.137977 0.586232
0.000000 0.411530 0.616881
0.168627 0.395102 0.616881
0.395102 0.395102 0.616881
0.616881 0.395102 0.616881
0.819459 0.378896 0.600675
1.000000 0.364452 0.586232
0.000000 0.616881 0.616881
0.168627 0.616881 0.616881
0.395102 0.616881 0.616881
0.616881 0.616881 0.616881
0.819459 0.600675 0.600675
1.000000 0.586232 0.586232
0.000000 0.819459 0.616881
0.152421 0.819459 0.600675
0.378896 0.819459 0.600675
0.600675 0.819459 0.600675
0.819459 0.819459 0.600675
1.000000 0.805016 0.586232
0.000000 1.000000 0.616881
0.137977 1.000000 0.586232
0.364452 1.000000 0.586232
0.586232 1.000000 0.586232
0.805016 1.000000 0.586232
1.000000 1.000000 0.586232
0.000000 0.000000 0.819459
0.201831 0.000000 0.819459
0.411530 0.000000 0.819459
0.616881 0.000000 0.819459
0.819459 0.000000 0.819459
1.000000 0.000000 0.819459
0.000000 0.201831 0.819459
0.152421 0.152421 0.819459
0.378896 0.152421 0.819459
0.600675 0.152421 0.819459
0.819459 0.152421 0.819459
1.000000 0.137977 0.805016
0.000000 0.411530 0.819459
0.152421 0.378896 0.819459
0.378896 0.378896 0.819459
0.600675 0.378896 0.819459
0.819459 0.378896 0.819459
1.000000 0.364452 0.805016
0.000000 0.616881 0.819459
0.152421 0.600675 0.819459
0.378896 0.600675 0.819459
0.600675 0.600675 0.819459
0.819459 0.600675 0.819459
1.000000 0.586232 0.805016
0.000000 0.819459 0.819459
0.152421 0.819459 0.819459
0.378896 0.819459 0.819459
0.600675 0.819459 0.819459
0.819459 0.819459 0.819459
1.000000 0.805016 0.805016
0.000000 1.000000 0.819459
0.137977 1.000000 0.805016
0.364452 1.000000 0.805016
0.586232 1.000000 0.805016
0.805016 1.000000 0.805016
1.000000 1.000000 0.805016
0.000000 0.000000 1.000000
0.201831 0.000000 1.000000
0.411530 0.000000 1.000000
0.616881 0.000000 1.000000
0.819459 0.000000 1.000000
1.000000 0.000000 1.000000
0.000000 0.201831 1.000000
0.137977 0.137977 1.000000
0.364452 0.137977 1.000000
0.586232 0.137977 1.000000
0.805016 0.137977 1.000000
1.000000 0.137977 1.000000
0.000000 0.411530 1.000000
0.137977 0.364452 1.000000
0.364452 0.364452 1.000000
0.586232 0.364452 1.000000
0.805016 0.364452 1.000000
1.000000 0.364452 1.000000
0.000000 0.616881 1.000000
0.137977 0.586232 1.000000
0.364452 0.586232 1.000000
0.586232 0.586232 1.000000
0.805016 0.586232 1.000000
1.000000 0.586232 1.000000
0.000000 0.819459 1.000000
0.137977 0.805016 1.000000
0.364452 0.805016 1.000000
0.586232 0.805016 1.000000
0.805016 0.805016 1.000000
1.000000 0.805016 1.000000
0.000000 1.000000 1.000000
0.137977 1.000000 1.000000
0.364452 1.000000 1.000000
0.586232 1.000000 1.000000
0.805016 1.000000 1.000000
1.000000 1.000000 1.000000
