vkBasalt/LUTs/nmh-color.cube
TITLE "No More Heroes Color Grade"
LUT_3D_SIZE 16
DOMAIN_MIN 0.0 0.0 0.0
DOMAIN_MAX 1.0 1.0 1.0
0.000000 0.000000 0.000000
0.057266 0.000000 0.000000
0.130305 0.000000 0.000000
0.201831 0.000000 0.000000
0.272391 0.000000 0.000000
0.342240 0.000000 0.000000
0.411530 0.000000 0.000000
0.480357 0.000000 0.000000
0.548790 0.000000 0.000000
0.616881 0.000000 0.000000
0.684670 0.000000 0.000000
0.752187 0.000000 0.000000
0.819459 0.000000 0.000000
0.886507 0.000000 0.000000
0.953349 0.000000 0.000000
1.000000 0.000000 0.000000
0.000000 0.057266 0.000000
0.057266 0.057266 0.000000
0.130305 0.057266 0.000000
0.201831 0.057266 0.000000
0.272391 0.057266 0.000000
0.342240 0.057266 0.000000
0.411530 0.057266 0.000000
0.480357 0.057266 0.000000
0.548790 0.057266 0.000000
0.616881 0.057266 0.000000
0.684670 0.057266 0.000000
0.752187 0.057266 0.000000
0.819459 0.057266 0.000000
0.886507 0.057266 0.000000
0.953349 0.057266 0.000000
1.000000 0.057266 0.000000
0.000000 0.130305 0.000000
0.057266 0.130305 0.000000
0.130305 0.130305 0.000000
0.201831 0.130305 0.000000
0.272391 0.130305 0.000000
0.342240 0.130305 0.000000
0.411530 0.130305 0.000000
0.480357 0.130305 0.000000
0.548790 0.130305 0.000000
0.616881 0.130305 0.000000
0.684670 0.130305 0.000000
0.752187 0.130305 0.000000
0.819459 0.130305 0.000000
0.886507 0.130305 0.000000
0.953349 0.130305 0.000000
1.000000 0.130305 0.000000
0.000000 0.201831 0.000000
0.057266 0.201831 0.000000
0.130305 0.201831 0.000000
0.201831 0.201831 0.000000
0.272391 0.201831 0.000000
0.342240 0.201831 0.000000
0.411530 0.201831 0.000000
0.480357 0.201831 0.000000
0.548790 0.201831 0.000000
0.616881 0.201831 0.000000
0.684670 0.201831 0.000000
0.752187 0.201831 0.000000
0.819459 0.201831 0.000000
0.886507 0.201831 0.000000
0.953349 0.201831 0.000000
1.000000 0.201831 0.000000
0.000000 0.272391 0.000000
0.057266 0.272391 0.000000
0.130305 0.272391 0.000000
0.201831 0.272391 0.000000
0.272391 0.272391 0.000000
0.342240 0.272391 0.000000
0.411530 0.272391 0.000000
0.480357 0.272391 0.000000
0.548790 0.272391 0.000000
0.616881 0.272391 0.000000
0.684670 0.272391 0.000000
0.752187 0.272391 0.000000
0.819459 0.272391 0.000000
0.886507 0.272391 0.000000
0.953349 0.272391 0.000000
1.000000 0.272391 0.000000
0.000000 0.342240 0.000000
0.057266 0.342240 0.000000
0.130305 0.342240 0.000000
0.201831 0.342240 0.000000
0.272391 0.342240 0.000000
0.342240 0.342240 0.000000
0.411530 0.342240 0.000000
0.480357 0.342240 0.000000
0.548790 0.342240 0.000000
0.616881 0.342240 0.000000
0.684670 0.342240 0.000000
0.752187 0.342240 0.000000
0.819459 0.342240 0.000000
0.886507 0.342240 0.000000
0.953349 0.342240 0.000000
1.000000 0.342240 0.000000
0.000000 0.411530 0.000000
0.057266 0.411530 0.000000
0.130305 0.411530 0.000000
0.201831 0.411530 0.000000
0.272391 0.411530 0.000000
0.342240 0.411530 0.000000
0.411530 0.411530 0.000000
0.480357 0.411530 0.000000
0.548790 0.411530 0.000000
0.616881 0.411530 0.000000
0.684670 0.411530 0.000000
0.752187 0.411530 0.000000
0.819459 0.411530 0.000000
0.886507 0.411530 0.000000
0.953349 0.411530 0.000000
1.000000 0.411530 0.000000
0.000000 0.480357 0.000000
0.057266 0.480357 0.000000
0.130305 0.480357 0.000000
0.201831 0.480357 0.000000
0.272391 0.480357 0.000000
0.342240 0.480357 0.000000
0.411530 0.480357 0.000000
0.480357 0.480357 0.000000
0.548790 0.480357 0.000000
0.616881 0.480357 0.000000
0.684670 0.480357 0.000000
0.752187 0.480357 0.000000
0.819459 0.480357 0.000000
0.886507 0.480357 0.000000
0.953349 0.480357 0.000000
1.000000 0.480357 0.000000
0.000000 0.548790 0.000000
0.057266 0.548790 0.000000
0.130305 0.548790 0.000000
0.201831 0.548790 0.000000
0.272391 0.548790 0.000000
0.342240 0.548790 0.000000
0.411530 0.548790 0.000000
0.480357 0.548790 0.000000
0.548790 0.548790 0.000000
0.616881 0.548790 0.000000
0.684670 0.548790 0.000000
0.752187 0.548790 0.000000
0.819459 0.548790 0.000000
0.886507 0.548790 0.000000
0.953349 0.548790 0.000000
1.000000 0.548790 0.000000
0.000000 0.616881 0.000000
0.057266 0.616881 0.000000
0.130305 0.616881 0.000000
0.201831 0.616881 0.000000
0.272391 0.616881 0.000000
0.342240 0.616881 0.000000
0.411530 0.616881 0.000000
0.480357 0.616881 0.000000
0.548790 0.616881 0.000000
0.616881 0.616881 0.000000
0.684670 0.616881 0.000000
0.752187 0.616881 0.000000
0.819459 0.616881 0.000000
0.886507 0.616881 0.000000
0.953349 0.616881 0.000000
1.000000 0.616881 0.000000
0.000000 0.684670 0.000000
0.057266 0.684670 0.000000
0.130305 0.684670 0.000000
0.201831 0.684670 0.000000
0.272391 0.684670 0.000000
0.342240 0.684670 0.000000
0.411530 0.684670 0.000000
0.480357 0.684670 0.000000
0.548790 0.684670 0.000000
0.616881 0.684670 0.000000
0.684670 0.684670 0.000000
0.752187 0.684670 0.000000
0.819459 0.684670 0.000000
0.886507 0.684670 0.000000
0.953349 0.684670 0.000000
1.000000 0.684670 0.000000
0.000000 0.752187 0.000000
0.057266 0.752187 0.000000
0.130305 0.752187 0.000000
0.201831 0.752187 0.000000
0.272391 0.752187 0.000000
0.342240 0.752187 0.000000
0.411530 0.752187 0.000000
0.480357 0.752187 0.000000
0.548790 0.752187 0.000000
0.616881 0.752187 0.000000
0.684670 0.752187 0.000000
0.752187 0.752187 0.000000
0.819459 0.752187 0.000000
0.886507 0.752187 0.000000
0.953349 0.752187 0.000000
1.000000 0.752187 0.000000
0.000000 0.819459 0.000000
0.057266 0.819459 0.000000
0.130305 0.819459 0.000000
0.201831 0.819459 0.000000
0.272391 0.819459 0.000000
0.342240 0.819459 0.000000
0.411530 0.819459 0.000000
0.480357 0.819459 0.000000
0.548790 0.819459 0.000000
0.616881 0.819459 0.000000
0.684670 0.819459 0.000000
0.752187 0.819459 0.000000
0.819459 0.819459 0.000000
0.886507 0.819459 0.000000
0.953349 0.819459 0.000000
1.000000 0.819459 0.000000
0.000000 0.886507 0.000000
0.057266 0.886507 0.000000
0.130305 0.886507 0.000000
0.201831 0.886507 0.000000
0.272391 0.886507 0.000000
0.342240 0.886507 0.000000
0.411530 0.886507 0.000000
0.480357 0.886507 0.000000
0.548790 0.886507 0.000000
0.616881 0.886507 0.000000
0.684670 0.886507 0.000000
0.752187 0.886507 0.000000
0.819459 0.886507 0.000000
0.886507 0.886507 0.000000
0.953349 0.886507 0.000000
1.000000 0.886507 0.000000
0.000000 0.953349 0.000000
0.057266 0.953349 0.000000
0.130305 0.953349 0.000000
0.201831 0.953349 0.000000
0.272391 0.953349 0.000000
0.342240 0.953349 0.000000
0.411530 0.953349 0.000000
0.480357 0.953349 0.000000
0.548790 0.953349 0.000000
0.616881 0.953349 0.000000
0.684670 0.953349 0.000000
0.752187 0.953349 0.000000
0.819459 0.953349 0.000000
0.886507 0.953349 0.000000
0.953349 0.953349 0.000000
1.000000 0.953349 0.000000
0.000000 1.000000 0.000000
0.057266 1.000000 0.000000
0.130305 1.000000 0.000000
0.201831 1.000000 0.000000
0.272391 1.000000 0.000000
0.342240 1.000000 0.000000
0.411530 1.000000 0.000000
0.480357 1.000000 0.000000
0.548790 1.000000 0.000000
0.616881 1.000000 0.000000
0.684670 1.000000 0.000000
0.752187 1.000000 0.000000
0.819459 1.000000 0.000000
0.886507 1.000000 0.000000
0.953349 1.000000 0.000000
1.000000 1.000000 0.000000
0.000000 0.000000 0.057266
0.057266 0.000000 0.057266
0.130305 0.000000 0.057266
0.201831 0.000000 0.057266
0.272391 0.000000 0.057266
0.342240 0.000000 0.057266
0.411530 0.000000 0.057266
0.480357 0.000000 0.057266
0.548790 0.000000 0.057266
0.616881 0.000000 0.057266
0.684670 0.000000 0.057266
0.752187 0.000000 0.057266
0.819459 0.000000 0.057266
0.886507 0.000000 0.057266
0.953349 0.000000 0.057266
1.000000 0.000000 0.057266
0.000000 0.057266 0.057266
0.057266 0.057266 0.057266
0.130305 0.051422 0.051422
0.201831 0.045700 0.045700
0.272391 0.040056 0.040056
0.342240 0.034468 0.034468
0.411530 0.028924 0.028924
0.480357 0.023418 0.023418
0.548790 0.017944 0.017944
0.616881 0.012496 0.012496
0.684670 0.007073 0.007073
0.752187 0.001672 0.001672
0.819459 0.000000 0.000000
0.886507 0.000000 0.000000
0.953349 0.000000 0.000000
1.000000 0.000000 0.000000
0.000000 0.130305 0.057266
0.051422 0.130305 0.051422
0.130305 0.130305 0.051422
0.201831 0.124583 0.045700
0.272391 0.118939 0.040056
0.342240 0.113351 0.034468
0.411530 0.107807 0.028924
0.480357 0.102301 0.023418
0.548790 0.096827 0.017944
0.616881 0.091379 0.012496
0.684670 0.085956 0.007073
0.752187 0.080555 0.001672
0.819459 0.078528 0.000000
0.886507 0.078084 0.000000
0.953349 0.077708 0.000000
1.000000 0.077477 0.000000
0.000000 0.201831 0.057266
0.045700 0.201831 0.045700
0.124583 0.201831 0.045700
0.201831 0.201831 0.045700
0.272391 0.196186 0.040056
0.342240 0.190598 0.034468
0.411530 0.185055 0.028924
0.480357 0.179549 0.023418
0.548790 0.174074 0.017944
0.616881 0.168627 0.012496
0.684670 0.163204 0.007073
0.752187 0.157802 0.001672
0.819459 0.155427 0.000000
0.886507 0.154549 0.000000
0.953349 0.153804 0.000000
1.000000 0.153347 0.000000
0.000000 0.272391 0.057266
0.040056 0.272391 0.040056
0.118939 0.272391 0.040056
0.196186 0.272391 0.040056
0.272391 0.272391 0.040056
0.342240 0.266803 0.034468
0.411530 0.261259 0.028924
0.480357 0.255753 0.023418
0.548790 0.250279 0.017944
0.616881 0.244831 0.012496
0.684670 0.239408 0.007073
0.752187 0.234007 0.001672
0.819459 0.231288 0.000000
0.886507 0.229981 0.000000
0.953349 0.228873 0.000000
1.000000 0.228193 0.000000
0.000000 0.342240 0.057266
0.034468 0.342240 0.034468
0.113351 0.342240 0.034468
0.190598 0.342240 0.034468
0.266803 0.342240 0.034468
0.342240 0.342240 0.034468
0.411530 0.336697 0.028924
0.480357 0.331191 0.023418
0.548790 0.325716 0.017944
0.616881 0.320269 0.012496
0.684670 0.314846 0.007073
0.752187 0.309445 0.001672
0.819459 0.306386 0.000000
0.886507 0.304655 0.000000
0.953349 0.303187 0.000000
1.000000 0.302285 0.000000
0.000000 0.411530 0.057266
0.028924 0.411530 0.028924
0.107807 0.411530 0.028924
0.185055 0.411530 0.028924
0.261259 0.411530 0.028924
0.336697 0.411530 0.028924
0.411530 0.411530 0.028924
0.480357 0.406024 0.023418
0.548790 0.400549 0.017944
0.616881 0.395102 0.012496
0.684670 0.389679 0.007073
0.752187 0.384277 0.001672
0.819459 0.380881 0.000000
0.886507 0.378729 0.000000
0.953349 0.376904 0.000000
1.000000 0.375784 0.000000
0.000000 0.480357 0.057266
0.023418 0.480357 0.023418
0.102301 0.480357 0.023418
0.179549 0.480357 0.023418
0.255753 0.480357 0.023418
0.331191 0.480357 0.023418
0.406024 0.480357 0.023418
0.480357 0.480357 0.023418
0.548790 0.474882 0.017944
0.616881 0.469435 0.012496
0.684670 0.464012 0.007073
0.752187 0.458610 0.001672
0.819459 0.454879 0.000000
0.886507 0.452309 0.000000
0.953349 0.450130 0.000000
1.000000 0.448792 0.000000
0.000000 0.548790 0.057266
0.017944 0.548790 0.017944
0.096827 0.548790 0.017944
0.174074 0.548790 0.017944
0.250279 0.548790 0.017944
0.325716 0.548790 0.017944
0.400549 0.548790 0.017944
0.474882 0.548790 0.017944
0.548790 0.548790 0.017944
0.616881 0.543343 0.012496
0.684670 0.537920 0.007073
0.752187 0.532518 0.001672
0.819459 0.528454 0.000000
0.886507 0.525468 0.000000
0.953349 0.522936 0.000000
1.000000 0.521382 0.000000
0.000000 0.616881 0.057266
0.012496 0.616881 0.012496
0.091379 0.616881 0.012496
0.168627 0.616881 0.012496
0.244831 0.616881 0.012496
0.320269 0.616881 0.012496
0.395102 0.616881 0.012496
0.469435 0.616881 0.012496
0.543343 0.616881 0.012496
0.616881 0.616881 0.012496
0.684670 0.611458 0.007073
0.752187 0.606057 0.001672
0.819459 0.601661 0.000000
0.886507 0.598262 0.000000
0.953349 0.595379 0.000000
1.000000 0.593609 0.000000
0.000000 0.684670 0.057266
0.007073 0.684670 0.007073
0.085956 0.684670 0.007073
0.163204 0.684670 0.007073
0.239408 0.684670 0.007073
0.314846 0.684670 0.007073
0.389679 0.684670 0.007073
0.464012 0.684670 0.007073
0.537920 0.684670 0.007073
0.611458 0.684670 0.007073
0.684670 0.684670 0.007073
0.752187 0.679269 0.001672
0.819459 0.674543 0.000000
0.886507 0.670731 0.000000
0.953349 0.667500 0.000000
1.000000 0.665515 0.000000
0.000000 0.752187 0.057266
0.001672 0.752187 0.001672
0.080555 0.752187 0.001672
0.157802 0.752187 0.001672
0.234007 0.752187 0.001672
0.309445 0.752187 0.001672
0.384277 0.752187 0.001672
0.458610 0.752187 0.001672
0.532518 0.752187 0.001672
0.606057 0.752187 0.001672
0.679269 0.752187 0.001672
0.752187 0.752187 0.001672
0.819459 0.747133 0.000000
0.886507 0.742912 0.000000
0.953349 0.739332 0.000000
1.000000 0.737134 0.000000
0.000000 0.819459 0.057266
0.000000 0.819459 0.000000
0.078528 0.819459 0.000000
0.155427 0.819459 0.000000
0.231288 0.819459 0.000000
0.306386 0.819459 0.000000
0.380881 0.819459 0.000000
0.454879 0.819459 0.000000
0.528454 0.819459 0.000000
0.601661 0.819459 0.000000
0.674543 0.819459 0.000000
0.747133 0.819459 0.000000
0.819459 0.819459 0.000000
0.886507 0.814829 0.000000
0.953349 0.810903 0.000000
1.000000 0.808493 0.000000
0.000000 0.886507 0.057266
0.000000 0.886507 0.000000
0.078084 0.886507 0.000000
0.154549 0.886507 0.000000
0.229981 0.886507 0.000000
0.304655 0.886507 0.000000
0.378729 0.886507 0.000000
0.452309 0.886507 0.000000
0.525468 0.886507 0.000000
0.598262 0.886507 0.000000
0.670731 0.886507 0.000000
0.742912 0.886507 0.000000
0.814829 0.886507 0.000000
0.886507 0.886507 0.000000
0.953349 0.882236 0.000000
1.000000 0.879613 0.000000
0.000000 0.953349 0.057266
0.000000 0.953349 0.000000
0.077708 0.953349 0.000000
0.153804 0.953349 0.000000
0.228873 0.953349 0.000000
0.303187 0.953349 0.000000
0.376904 0.953349 0.000000
0.450130 0.953349 0.000000
0.522936 0.953349 0.000000
0.595379 0.953349 0.000000
0.667500 0.953349 0.000000
0.739332 0.953349 0.000000
0.810903 0.953349 0.000000
0.882236 0.953349 0.000000
0.953349 0.953349 0.000000
1.000000 0.950515 0.000000
0.000000 1.000000 0.057266
0.000000 1.000000 0.000000
0.077477 1.000000 0.000000
0.153347 1.000000 0.000000
0.228193 1.000000 0.000000
0.302285 1.000000 0.000000
0.375784 1.000000 0.000000
0.448792 1.000000 0.000000
0.521382 1.000000 0.000000
0.593609 1.000000 0.000000
0.665515 1.000000 0.000000
0.737134 1.000000 0.000000
0.808493 1.000000 0.000000
0.879613 1.000000 0.000000
0.950515 1.000000 0.000000
1.000000 1.000000 0.000000
0.000000 0.000000 0.130305
0.057266 0.000000 0.130305
0.130305 0.000000 0.130305
0.201831 0.000000 0.130305
0.272391 0.000000 0.130305
0.342240 0.000000 0.130305
0.411530 0.000000 0.130305
0.480357 0.000000 0.130305
0.548790 0.000000 0.130305
0.616881 0.000000 0.130305
0.684670 0.000000 0.130305
0.752187 0.000000 0.130305
0.819459 0.000000 0.130305
0.886507 0.000000 0.130305
0.953349 0.000000 0.130305
1.000000 0.000000 0.130305
0.000000 0.057266 0.130305
0.051422 0.051422 0.130305
0.130305 0.051422 0.130305
0.201831 0.045700 0.124583
0.272391 0.040056 0.118939
0.342240 0.034468 0.113351
0.411530 0.028924 0.107807
0.480357 0.023418 0.102301
0.548790 0.017944 0.096827
0.616881 0.012496 0.091379
0.684670 0.007073 0.085956
0.752187 0.001672 0.080555
0.819459 0.000000 0.078528
0.886507 0.000000 0.078084
0.953349 0.000000 0.077708
1.000000 0.000000 0.077477
0.000000 0.130305 0.130305
0.051422 0.130305 0.130305
0.130305 0.130305 0.130305
0.201831 0.124583 0.124583
0.272391 0.118939 0.118939
0.342240 0.113351 0.113351
0.411530 0.107807 0.107807
0.480357 0.102301 0.102301
0.548790 0.096827 0.096827
0.616881 0.091379 0.091379
0.684670 0.085956 0.085956
0.752187 0.080555 0.080555
0.819459 0.075173 0.075173
0.886507 0.069809 0.069809
0.953349 0.064462 0.064462
1.000000 0.060730 0.060730
0.000000 0.201831 0.130305
0.045700 0.201831 0.124583
0.124583 0.201831 0.124583
0.201831 0.201831 0.124583
0.272391 0.196186 0.118939
0.342240 0.190598 0.113351
0.411530 0.185055 0.107807
0.480357 0.179549 0.102301
0.548790 0.174074 0.096827
0.616881 0.168627 0.091379
0.684670 0.163204 0.085956
0.752187 0.157802 0.080555
0.819459 0.152421 0.075173
0.886507 0.147057 0.069809
0.953349 0.141709 0.064462
1.000000 0.137977 0.060730
0.000000 0.272391 0.130305
0.040056 0.272391 0.118939
0.118939 0.272391 0.118939
0.196186 0.272391 0.118939
0.272391 0.272391 0.118939
0.342240 0.266803 0.113351
0.411530 0.261259 0.107807
0.480357 0.255753 0.102301
0.548790 0.250279 0.096827
0.616881 0.244831 0.091379
0.684670 0.239408 0.085956
0.752187 0.234007 0.080555
0.819459 0.228625 0.075173
0.886507 0.223261 0.069809
0.953349 0.217914 0.064462
1.000000 0.214182 0.060730
0.000000 0.342240 0.130305
0.034468 0.342240 0.113351
0.113351 0.342240 0.113351
0.190598 0.342240 0.113351
0.266803 0.342240 0.113351
0.342240 0.342240 0.113351
0.411530 0.336697 0.107807
0.480357 0.331191 0.102301
0.548790 0.325716 0.096827
0.616881 0.320269 0.091379
0.684670 0.314846 0.085956
0.752187 0.309445 0.080555
0.819459 0.304063 0.075173
0.886507 0.298699 0.069809
0.953349 0.293352 0.064462
1.000000 0.289620 0.060730
0.000000 0.411530 0.130305
0.028924 0.411530 0.107807
0.107807 0.411530 0.107807
0.185055 0.411530 0.107807
0.261259 0.411530 0.107807
0.336697 0.411530 0.107807
0.411530 0.411530 0.107807
0.480357 0.406024 0.102301
0.548790 0.400549 0.096827
0.616881 0.395102 0.091379
0.684670 0.389679 0.085956
0.752187 0.384277 0.080555
0.819459 0.378896 0.075173
0.886507 0.373532 0.069809
0.953349 0.368184 0.064462
1.000000 0.364452 0.060730
0.000000 0.480357 0.130305
0.023418 0.480357 0.102301
0.102301 0.480357 0.102301
0.179549 0.480357 0.102301
0.255753 0.480357 0.102301
0.331191 0.480357 0.102301
0.406024 0.480357 0.102301
0.480357 0.480357 0.102301
0.548790 0.474882 0.096827
0.616881 0.469435 0.091379
0.684670 0.464012 0.085956
0.752187 0.458610 0.080555
0.819459 0.453229 0.075173
0.886507 0.447865 0.069809
0.953349 0.442517 0.064462
1.000000 0.438785 0.060730
0.000000 0.548790 0.130305
0.017944 0.548790 0.096827
0.096827 0.548790 0.096827
0.174074 0.548790 0.096827
0.250279 0.548790 0.096827
0.325716 0.548790 0.096827
0.400549 0.548790 0.096827
0.474882 0.548790 0.096827
0.548790 0.548790 0.096827
0.616881 0.543343 0.091379
0.684670 0.537920 0.085956
0.752187 0.532518 0.080555
0.819459 0.527137 0.075173
0.886507 0.521773 0.069809
0.953349 0.516426 0.064462
1.000000 0.512693 0.060730
0.000000 0.616881 0.130305
0.012496 0.616881 0.091379
0.091379 0.616881 0.091379
0.168627 0.616881 0.091379
0.244831 0.616881 0.091379
0.320269 0.616881 0.091379
0.395102 0.616881 0.091379
0.469435 0.616881 0.091379
0.543343 0.616881 0.091379
0.616881 0.616881 0.091379
0.684670 0.611458 0.085956
0.752187 0.606057 0.080555
0.819459 0.600675 0.075173
0.886507 0.595311 0.069809
0.953349 0.589964 0.064462
1.000000 0.586232 0.060730
0.000000 0.684670 0.130305
0.007073 0.684670 0.085956
0.085956 0.684670 0.085956
0.163204 0.684670 0.085956
0.239408 0.684670 0.085956
0.314846 0.684670 0.085956
0.389679 0.684670 0.085956
0.464012 0.684670 0.085956
0.537920 0.684670 0.085956
0.611458 0.684670 0.085956
0.684670 0.684670 0.085956
0.752187 0.679269 0.080555
0.819459 0.673887 0.075173
0.886507 0.668523 0.069809
0.953349 0.663176 0.064462
1.000000 0.659444 0.060730
0.000000 0.752187 0.130305
0.001672 0.752187 0.080555
0.080555 0.752187 0.080555
0.157802 0.752187 0.080555
0.234007 0.752187 0.080555
0.309445 0.752187 0.080555
0.384277 0.752187 0.080555
0.458610 0.752187 0.080555
0.532518 0.752187 0.080555
0.606057 0.752187 0.080555
0.679269 0.752187 0.080555
0.752187 0.752187 0.080555
0.819459 0.746806 0.075173
0.886507 0.741442 0.069809
0.953349 0.736094 0.064462
1.000000 0.732362 0.060730
0.000000 0.819459 0.130305
0.000000 0.819459 0.078528
0.075173 0.819459 0.075173
0.152421 0.819459 0.075173
0.228625 0.819459 0.075173
0.304063 0.819459 0.075173
0.378896 0.819459 0.075173
0.453229 0.819459 0.075173
0.527137 0.819459 0.075173
0.600675 0.819459 0.075173
0.673887 0.819459 0.075173
0.746806 0.819459 0.075173
0.819459 0.819459 0.075173
0.886507 0.814096 0.069809
0.953349 0.808748 0.064462
1.000000 0.805016 0.060730
0.000000 0.886507 0.130305
0.000000 0.886507 0.078084
0.069809 0.886507 0.069809
0.147057 0.886507 0.069809
0.223261 0.886507 0.069809
0.298699 0.886507 0.069809
0.373532 0.886507 0.069809
0.447865 0.886507 0.069809
0.521773 0.886507 0.069809
0.595311 0.886507 0.069809
0.668523 0.886507 0.069809
0.741442 0.886507 0.069809
0.814096 0.886507 0.069809
0.886507 0.886507 0.069809
0.953349 0.881160 0.064462
1.000000 0.877428 0.060730
0.000000 0.953349 0.130305
0.000000 0.953349 0.077708
0.064462 0.953349 0.064462
0.141709 0.953349 0.064462
0.217914 0.953349 0.064462
0.293352 0.953349 0.064462
0.368184 0.953349 0.064462
0.442517 0.953349 0.064462
0.516426 0.953349 0.064462
0.589964 0.953349 0.064462
0.663176 0.953349 0.064462
0.736094 0.953349 0.064462
0.808748 0.953349 0.064462
0.881160 0.953349 0.064462
0.953349 0.953349 0.064462
1.000000 0.949617 0.060730
0.000000 1.000000 0.130305
0.000000 1.000000 0.077477
0.060730 1.000000 0.060730
0.137977 1.000000 0.060730
0.214182 1.000000 0.060730
0.289620 1.000000 0.060730
0.364452 1.000000 0.060730
0.438785 1.000000 0.060730
0.512693 1.000000 0.060730
0.586232 1.000000 0.060730
0.659444 1.000000 0.060730
0.732362 1.000000 0.060730
0.805016 1.000000 0.060730
0.877428 1.000000 0.060730
0.949617 1.000000 0.060730
1.000000 1.000000 0.060730
0.000000 0.000000 0.201831
0.057266 0.000000 0.201831
0.130305 0.000000 0.201831
0.201831 0.000000 0.201831
0.272391 0.000000 0.201831
0.342240 0.000000 0.201831
0.411530 0.000000 0.201831
0.480357 0.000000 0.201831
0.548790 0.000000 0.201831
0.616881 0.000000 0.201831
0.684670 0.000000 0.201831
0.752187 0.000000 0.201831
0.819459 0.000000 0.201831
0.886507 0.000000 0.201831
0.953349 0.000000 0.201831
1.000000 0.000000 0.201831
0.000000 0.057266 0.201831
0.045700 0.045700 0.201831
0.124583 0.045700 0.201831
0.201831 0.045700 0.201831
0.272391 0.040056 0.196186
0.342240 0.034468 0.190598
0.411530 0.028924 0.185055
0.480357 0.023418 0.179549
0.548790 0.017944 0.174074
0.616881 0.012496 0.168627
0.684670 0.007073 0.163204
0.752187 0.001672 0.157802
0.819459 0.000000 0.155427
0.886507 0.000000 0.154549
0.953349 0.000000 0.153804
1.000000 0.000000 0.153347
0.000000 0.130305 0.201831
0.045700 0.124583 0.201831
0.124583 0.124583 0.201831
0.201831 0.124583 0.201831
0.272391 0.118939 0.196186
0.342240 0.113351 0.190598
0.411530 0.107807 0.185055
0.480357 0.102301 0.179549
0.548790 0.096827 0.174074
0.616881 0.091379 0.168627
0.684670 0.085956 0.163204
0.752187 0.080555 0.157802
0.819459 0.075173 0.152421
0.886507 0.069809 0.147057
0.953349 0.064462 0.141709
1.000000 0.060730 0.137977
0.000000 0.201831 0.201831
0.045700 0.201831 0.201831
0.124583 0.201831 0.201831
0.201831 0.201831 0.201831
0.272391 0.196186 0.196186
0.342240 0.190598 0.190598
0.411530 0.185055 0.185055
0.480357 0.179549 0.179549
0.548790 0.174074 0.174074
0.616881 0.168627 0.168627
0.684670 0.163204 0.163204
0.752187 0.157802 0.157802
0.819459 0.152421 0.152421
0.886507 0.147057 0.147057
0.953349 0.141709 0.141709
1.000000 0.137977 0.137977
0.000000 0.272391 0.201831
0.040056 0.272391 0.196186
0.118939 0.272391 0.196186
0.196186 0.272391 0.196186
0.272391 0.272391 0.196186
0.342240 0.266803 0.190598
0.411530 0.261259 0.185055
0.480357 0.255753 0.179549
0.548790 0.250279 0.174074
0.616881 0.244831 0.168627
0.684670 0.239408 0.163204
0.752187 0.234007 0.157802
0.819459 0.228625 0.152421
0.886507 0.223261 0.147057
0.953349 0.217914 0.141709
1.000000 0.214182 0.137977
0.000000 0.342240 0.201831
0.034468 0.342240 0.190598
0.113351 0.342240 0.190598
0.190598 0.342240 0.190598
0.266803 0.342240 0.190598
0.342240 0.342240 0.190598
0.411530 0.336697 0.185055
0.480357 0.331191 0.179549
0.548790 0.325716 0.174074
0.616881 0.320269 0.168627
0.684670 0.314846 0.163204
0.752187 0.309445 0.157802
0.819459 0.304063 0.152421
0.886507 0.298699 0.147057
0.953349 0.293352 0.141709
1.000000 0.289620 0.137977
0.000000 0.411530 0.201831
0.028924 0.411530 0.185055
0.107807 0.411530 0.185055
0.185055 0.411530 0.185055
0.261259 0.411530 0.185055
0.336697 0.411530 0.185055
0.411530 0.411530 0.185055
0.480357 0.406024 0.179549
0.548790 0.400549 0.174074
0.616881 0.395102 0.168627
0.684670 0.389679 0.163204
0.752187 0.384277 0.157802
0.819459 0.378896 0.152421
0.886507 0.373532 0.147057
0.953349 0.368184 0.141709
1.000000 0.364452 0.137977
0.000000 0.480357 0.201831
0.023418 0.480357 0.179549
0.102301 0.480357 0.179549
0.179549 0.480357 0.179549
0.255753 0.480357 0.179549
